assets/about/figma.svg

<svg width="101" height="100" viewBox="0 0 101 100" fill="none" xmlns="http://www.w3.org/2000/svg">
<g clip-path="url(#clip0_158_1404)">
<path d="M100.855 0H0.855469V100H100.855V0Z" fill="#2A2B33"/>
<path d="M39.5059 17.1001H50.8559V39.0001H39.5059C36.5885 39.0001 33.7906 37.8412 31.7277 35.7783C29.6648 33.7154 28.5059 30.9175 28.5059 28.0001C28.5322 25.1001 29.7028 22.3278 31.7628 20.2865C33.8229 18.2452 36.6057 17.1 39.5059 17.1001Z" fill="#E54E22"/>
<path d="M39.5059 39H50.8559V61H39.5059C36.5885 61 33.7906 59.8411 31.7277 57.7782C29.6648 55.7153 28.5059 52.9174 28.5059 50C28.5059 47.0826 29.6648 44.2847 31.7277 42.2218C33.7906 40.1589 36.5885 39 39.5059 39Z" fill="#775EA6"/>
<path d="M62.1955 39.0298H61.8255C55.7669 39.0298 50.8555 43.939 50.8555 49.9948C50.8555 56.0506 55.7669 60.9598 61.8255 60.9598H62.1955C68.254 60.9598 73.1655 56.0506 73.1655 49.9948C73.1655 43.939 68.254 39.0298 62.1955 39.0298Z" fill="#35B1E7"/>
<path d="M39.5059 60.9999H50.8559V71.5499C50.8559 73.0404 50.5623 74.5163 49.9919 75.8934C49.4215 77.2704 48.5855 78.5216 47.5315 79.5756C46.4776 80.6295 45.2264 81.4655 43.8493 82.0359C42.4723 82.6063 40.9964 82.8999 39.5059 82.8999C36.5885 82.8999 33.7906 81.741 31.7277 79.6781C29.6648 77.6152 28.5059 74.8173 28.5059 71.8999C28.5059 68.9825 29.6648 66.1846 31.7277 64.1217C33.7906 62.0588 36.5885 60.8999 39.5059 60.8999V60.9999Z" fill="#43B57C"/>
<path d="M62.2051 39.0298H50.8551V17.0998L62.2051 17.0998C65.1225 17.0998 67.9204 18.2587 69.9833 20.3216C72.0462 22.3845 73.2051 25.1824 73.2051 28.0998C73.1866 31.005 72.0195 33.785 69.9586 35.8327C67.8977 37.8805 65.1104 39.0298 62.2051 39.0298Z" fill="#EC6D61"/>
</g>
<defs>
<clipPath id="clip0_158_1404">
<rect width="100" height="100" fill="white" transform="translate(0.855469)"/>
</clipPath>
</defs>
</svg>

<svg xmlns="http://www.w3.org/2000/svg" width="101" height="100" fill="none" xmlns:v="https://vecta.io/nano"><g clip-path="url(#A)"><path d="M100.855 0h-100v100h100V0z" fill="#2a2b33"/><path d="M39.506 17.1h11.35V39h-11.35a11 11 0 0 1-11-11 11 11 0 0 1 11-10.9z" fill="#e54e22"/><path d="M39.506 39h11.35v22h-11.35a11 11 0 0 1-11-11 11 11 0 0 1 11-11z" fill="#775ea6"/><path d="M62.196 39.03h-.37a10.97 10.97 0 0 0-10.97 10.965 10.97 10.97 0 0 0 10.97 10.965h.37a10.97 10.97 0 0 0 10.97-10.965 10.97 10.97 0 0 0-10.97-10.965z" fill="#35b1e7"/><path d="M39.506 61h11.35v10.55a11.35 11.35 0 0 1-3.324 8.026 11.35 11.35 0 0 1-8.026 3.324 11 11 0 0 1-11-11 11 11 0 0 1 11-11v.1z" fill="#43b57c"/><path d="M62.205 39.03h-11.35V17.1h11.35a11 11 0 0 1 11 11 11 11 0 0 1-11 10.93z" fill="#ec6d61"/></g><defs><clipPath id="A"><path fill="#fff" transform="translate(.855)" d="M0 0h100v100H0z"/></clipPath></defs></svg>
